www/assets/icons/punch_clock.svg

<svg xmlns="http://www.w3.org/2000/svg" width="24" height="24" viewBox="0 0 24 24" fill='currentColor'><path d="M19 6.5h-1v-5H6v5H5c-1.1 0-2 .9-2 2v12c0 1.1.9 2 2 2h14c1.1 0 2-.9 2-2v-12c0-1.1-.9-2-2-2m-11-3h8v3H8zm4 16c-2.76 0-5-2.24-5-5s2.24-5 5-5 5 2.24 5 5-2.24 5-5 5"/><path d="M12.5 12h-1v2.71l1.64 1.64.71-.71-1.35-1.35z"/></svg>

<svg width="24" height="24" viewBox="0 0 24 24" xmlns="http://www.w3.org/2000/svg" fill='currentColor'><path d="M19 6.5H18V1.5H6V6.5H5C3.9 6.5 3 7.4 3 8.5V20.5C3 21.6 3.9 22.5 5 22.5H19C20.1 22.5 21 21.6 21 20.5V8.5C21 7.4 20.1 6.5 19 6.5ZM8 3.5H16V6.5H8V3.5ZM12 19.5C9.24 19.5 7 17.26 7 14.5C7 11.74 9.24 9.5 12 9.5C14.76 9.5 17 11.74 17 14.5C17 17.26 14.76 19.5 12 19.5Z"/><path d="M12.5 12H11.5V14.71L13.14 16.35L13.85 15.64L12.5 14.29V12Z"/></svg>
